X:1
T:Title
L:1/8
Q:1/4=100
M:2/4
K:G
V:1 treble nm="Grand Piano"
V:1
 z G GA | _B2 B2 | GD GA | _B2 B2 | z G GA | _B2 BA | c2 _B2 | A4 | FG FG | A2 A2 | FG FG | A2 A2 | %12
 FG FG | A2 G2 | _BA GF | GF ^D=D | z G GA | _B2 B2 | GD GA | _B2 B2 | z G GA | _B2 BA | c2 _B2 | %23
 A4 | FG FG | A2 A2 | FG FG | A2 A2 | FG FG | A2 G2 | _BA GF | G2 _B2 | z _B Bc | d2 dc | c2 c_B | %35
 c_B A2- | AA A_B | c2 c2 | _Bc BA | _BA G2 | G2 A2 | _B2 d2 | c2 _B2 | A4 | F2 G2 | A2 cc | %46
 _B2 AA | G4 |] %48

